UI/Misc/SVG/add-address-number_solid_16px.svg

<svg width="16" height="16" viewBox="0 0 16 16" fill="none" xmlns="http://www.w3.org/2000/svg">
<path d="M9 12.5C9.00617 12.6676 9.02287 12.8345 9.05 13H8L4 6.33V13H2V3H4L8 9.67V3H10V10.06C9.35765 10.7094 8.99818 11.5866 9 12.5ZM13 7C13.3956 7 13.7822 6.8827 14.1111 6.66294C14.44 6.44318 14.6964 6.13082 14.8478 5.76537C14.9991 5.39992 15.0387 4.99778 14.9616 4.60982C14.8844 4.22186 14.6939 3.86549 14.4142 3.58579C14.1345 3.30608 13.7781 3.1156 13.3902 3.03843C13.0022 2.96126 12.6001 3.00087 12.2346 3.15224C11.8692 3.30362 11.5568 3.55996 11.3371 3.88886C11.1173 4.21776 11 4.60444 11 5C11 5.53043 11.2107 6.03914 11.5858 6.41421C11.9609 6.78929 12.4696 7 13 7ZM13 12V10H12V12H10V13H12V15H13V13H15V12H13Z" fill="#0F1621"/>
</svg>

<svg xmlns="http://www.w3.org/2000/svg" width="16" height="16" viewBox="0 0 16 16"><rect width="16" height="16" style="fill:none"/><path d="M9,12.5a4,4,0,0,0,.05.5H8L4,6.33V13H2V3H4L8,9.67V3h2v7.06A3.46,3.46,0,0,0,9,12.5ZM13,7a2,2,0,1,0-2-2A2,2,0,0,0,13,7Zm0,5V10H12v2H10v1h2v2h1V13h2V12Z"/></svg>
